X: 897
T: The Lakeside road
C: anon.
O: Ireland
B: Francis O'Neill: "The Dance Music of Ireland" (1907) no. 897
R: Hornpipe
Z: Transcribed by Frank Nordberg - http://www.musicaviva.com
F: http://www.musicaviva.com/abc/tunes/ireland/oneill-1001/oneill-1001-089
7.abc
M: 2/4
L: 1/16
K: G
(DF)|G2GF GBdB|cdef gfge|dBGB dBGB|ABcA GFED|G2GF GBdB|cdef gfge|dgec BcA
F|G2GG G2:|
|:(Bc)|d2Bd GdBd|e2ce Aece|d2Bd GdBd|AFDF AFDF|d2Bd GdBd|cdef gfge|dgdc B
cAF|G2GG G2:|
W:
W:
W: From Musica Viva - http://www.musicaviva.com
W: the Internet center for free sheet music downloads.


